static/images/past-sponsors/mullvad.svg

<svg fill="none" height="60" viewBox="0 0 301 60" width="301" xmlns="http://www.w3.org/2000/svg" xmlns:xlink="http://www.w3.org/1999/xlink"><clipPath id="a"><path d="m0 .011108h301v59.9779h-301z"/></clipPath><g clip-path="url(#a)"><path clip-rule="evenodd" d="m.947876 29.9999c0 16.5614 13.444224 29.9818 29.981824 29.9818s29.9818-13.4204 29.9818-29.9818-13.4204-29.9818336-29.9818-29.9818336-29.981824 13.4204336-29.981824 29.9818336z" fill="#192e45" fill-rule="evenodd"/><path clip-rule="evenodd" d="m6.63501 23.0041-1.68945 3.4265 2.28432-3.1885c0 .0238-.14277 4.5924-.14277 4.5924l.64247-3.4502c1.71325 3.2599 5.49662 8.2807 10.80302 12.0165.4045.2855.928.7852 1.0945.9756 0 0 5.0684 2.5699 12.8732-3.3789.0714-.0476.1665-.0952.2379-.1428l.119.0714 1.7132 1.1422c-.5948-.1666-1.737-.4522-1.737-.4522-3.7596 4.3308-9.875 5.0446-13.1587 2.8555-.1428-.0952-.9518.2379-1.0946.7138-.0951.2618 0 .5473.119.7615.6663 1.2373 1.6657 1.1183 1.1898 2.5698-.3332.7853-.8091 1.5467-1.3326 2.2606-1.0945 1.4753-2.8078 2.784-2.6412 3.5692 7.7572 9.5656 25.2466 8.2331 31.9092-.3093-.0952-1.2374-2.0464-1.8322-3.4027-4.8542.3807.119.9518.2855.9518.2617s-1.618-2.6412-1.6894-2.903l1.0469.0714s-1.3801-1.7132-1.4277-1.8798l1.404-.1904s-1.7609-2.0225-1.7847-2.1891l1.7847.2855-1.9512-2.3557h.928l-1.0946-1.5942-8.8756-3.4979c-3.4027-2.1178-6.4247-4.7115-8.709-6.7102l-4.5924-2.2368c-4.4021-.3331-8.5187-.2141-11.04096.2856l1.61806-2.7603-2.3557 2.8079c-.14277-.0476-.30934-.0952-.30934-.0952l.16656-3.5693-.78523 3.3313z" fill="#d2943b" fill-rule="evenodd"/><path clip-rule="evenodd" d="m7.70574 19.2446c-1.16596-.5472-2.52228.238-2.76023 1.3088-.28554 1.0232.42831 2.2843 1.68945 2.4509 1.18975-.7377 2.21294-2.6413 1.07078-3.7597z" fill="#ffcd86" fill-rule="evenodd"/><path clip-rule="evenodd" d="m25.0284 16.6509c-.3569-.9756-.2617-2.2367.238-3.4265.7138-1.6418 2.0702-2.7364 3.3551-2.7364.2618 0 .4997.0476.7377.1428.7376-.66629 1.5942-1.21358 2.546-1.5943 5.2349-2.09397 12.9208 1.6419 14.8958 6.7816.9518 2.4985.6662 5.2111-.1428 7.7096-.6663 2.0464-3.0934 4.997-2.1892 7.2099-.3569-.0952-7.8048-2.6174-9.9463-3.7596-3.3551-2.094-6.3533-4.6638-8.6138-6.6388l-.0714-.0714-7.6144-3.6169c-.0952-.0476-.1904-.0952-.2618-.1427 1.047.0475 5.2111.5472 7.0671.1427z" fill="#ffd524" fill-rule="evenodd"/><path d="m29.7894 15.1627c.7162-1.6375.5061-3.3107-.4691-3.7373-.9753-.4265-2.3465.5552-3.0626 2.1927-.7162 1.6375-.5062 3.3107.4691 3.7372.9753.4266 2.3465-.5551 3.0626-2.1926z" fill="#fff"/><g fill="#192e45"><path d="m29.5259 10.9879c-1.2611-.5473-2.9506.5235-3.7834 2.4033s-.4521 3.831.809 4.4021c1.2612.5473 2.9506-.5235 3.7834-2.4033.8329-1.8799.4521-3.8311-.809-4.4021zm.119 4.1165c-.6663 1.4991-1.9274 2.4033-2.8078 2.0226-.9042-.4045-1.0946-1.9274-.4283-3.4503.6662-1.4991 1.9274-2.4033 2.8316-2.0226.8804.4045 1.0707 1.9512.4045 3.4503z"/><path d="m71.6193 18.031c0-.2142.1427-.3569.3569-.3569h4.2355c.2856 0 .4759.0952.5711.3569l6.1391 13.8725h.1428l6.0202-13.8725c.0951-.238.2855-.3569.571-.3569h4.1642c.2141 0 .3569.1427.3569.3569v23.6047c0 .2142-.1428.357-.3569.357h-4.0452c-.2141 0-.3569-.1428-.3569-.357v-13.6821h-.1428l-4.4973 10.2556c-.1427.3332-.3569.4759-.6662.4759h-2.4509c-.3093 0-.5235-.1427-.6663-.4759l-4.4972-10.2556h-.1428v13.6821c0 .2142-.1428.357-.3569.357h-4.0214c-.2142 0-.3569-.1428-.3569-.357z"/><path d="m99.4833 33.0457v-15.0147c0-.2142.1427-.3569.3569-.3569h4.5208c.214 0 .357.1427.357.3569v15.1575c0 2.8792 1.618 4.521 4.069 4.521 2.427 0 4.022-1.6418 4.022-4.521v-15.1575c0-.2142.142-.3569.356-.3569h4.522c.214 0 .356.1427.356.3569v15.0147c0 6.0202-3.854 9.3277-9.28 9.3277-5.425 0-9.2797-3.2837-9.2797-9.3277z"/><path d="m123.326 18.031c0-.2142.143-.3569.357-.3569h4.521c.214 0 .357.1427.357.3569v19.0599c0 .1427.071.2141.214.2141h10.708c.214 0 .357.1428.357.3569v3.95c0 .2142-.143.357-.357.357h-15.8c-.214 0-.357-.1428-.357-.357z"/><path d="m143.695 18.031c0-.2142.142-.3569.357-.3569h4.521c.214 0 .357.1427.357.3569v19.0599c0 .1427.071.2141.214.2141h10.708c.214 0 .356.1428.356.3569v3.95c0 .2142-.142.357-.356.357h-15.8c-.215 0-.357-.1428-.357-.357z"/><path d="m167.728 41.9452c-.238 0-.381-.1428-.452-.3569l-7.71-23.5572c-.071-.2617.071-.3807.309-.3807h4.64c.238 0 .405.0952.476.3569l4.854 15.9427h.096l4.711-15.9427c.071-.2379.214-.3569.452-.3569h4.593c.214 0 .357.1428.285.3807l-7.709 23.5572c-.072.2141-.215.3569-.429.3569z"/><path d="m188.548 18.031c.072-.2142.214-.3569.476-.3569h4.497c.238 0 .381.1427.453.3569l8.209 23.6047c.071.2142 0 .357-.238.357h-4.64c-.238 0-.405-.119-.476-.357l-1.38-4.2355h-8.495l-1.356 4.2355c-.072.238-.214.357-.476.357h-4.664c-.238 0-.309-.1428-.238-.357zm5.473 14.8481-2.736-8.5424h-.095l-2.737 8.5186z"/><path d="m205.728 18.031c0-.2142.143-.3569.357-.3569h9.019c4.235 0 7.21 1.8084 8.376 5.4491.428 1.3563.642 2.7126.642 6.6864 0 3.9737-.214 5.3063-.642 6.6864-1.166 3.6406-4.141 5.4491-8.376 5.4491h-9.019c-.214 0-.357-.1428-.357-.357zm5.449 19.274h2.737c2.427 0 3.879-.7138 4.497-2.665.238-.7139.405-1.6419.405-4.7828 0-3.141-.143-4.069-.405-4.7829-.595-1.9512-2.07-2.665-4.497-2.665h-2.737c-.142 0-.214.0714-.214.2142v14.515c0 .0475.072.1665.214.1665z"/><path d="m243.301 41.9452c-.262 0-.405-.1428-.476-.3569l-7.71-23.5572c-.071-.2617.072-.3807.31-.3807h4.64c.238 0 .404.0952.476.3569l4.854 15.9427h.095l4.711-15.9427c.072-.2379.215-.3569.453-.3569h4.592c.214 0 .357.1428.286.3807l-7.71 23.5572c-.071.2141-.214.3569-.428.3569z"/><path d="m259.363 41.945c-.215 0-.357-.1427-.357-.3569v-23.6047c0-.2142.142-.3569.357-.3569h9.422c5.283 0 8.448 3.1647 8.448 7.8285 0 4.5687-3.213 7.8048-8.448 7.8048h-4.307c-.142 0-.214.0714-.214.2142v8.1141c0 .2142-.142.3569-.357.3569zm12.635-16.4424c0-1.9512-1.309-3.2837-3.522-3.2837h-3.998c-.142 0-.214.0714-.214.2142v6.0915c0 .1428.072.2142.214.2142h3.998c2.189.0238 3.522-1.2612 3.522-3.2362z"/><path d="m281.325 18.031c0-.2142.143-.3569.357-.3569h4.283c.238 0 .476.0952.595.3569l8.567 15.3002h.19v-15.3002c0-.2142.143-.3569.357-.3569h4.021c.214 0 .357.1427.357.3569v23.6047c0 .2142-.143.357-.357.357h-4.235c-.286 0-.476-.119-.595-.357l-8.59-15.2526h-.191v15.2526c0 .2142-.142.357-.356.357h-4.022c-.214 0-.357-.1428-.357-.357z"/></g></g></svg>

<svg width="301" height="60" viewBox="0 0 301 60" fill="none" xmlns="http://www.w3.org/2000/svg">
<g clip-path="url(#clip0_2548_39602)">
<path fill-rule="evenodd" clip-rule="evenodd" d="M0.947876 29.9999C0.947876 46.5613 14.3921 59.9817 30.9297 59.9817C47.4673 59.9817 60.9115 46.5613 60.9115 29.9999C60.9115 13.4385 47.4911 0.0180664 30.9297 0.0180664C14.3683 0.0180664 0.947876 13.4385 0.947876 29.9999Z" fill="#192E45"/>
<path fill-rule="evenodd" clip-rule="evenodd" d="M6.63501 23.0041L4.94556 26.4306L7.22988 23.2421C7.22988 23.2659 7.08711 27.8345 7.08711 27.8345L7.72958 24.3843C9.44283 27.6442 13.2262 32.665 18.5326 36.4008C18.9371 36.6863 19.4606 37.186 19.6271 37.3764C19.6271 37.3764 24.6955 39.9463 32.5003 33.9975C32.5717 33.9499 32.6668 33.9023 32.7382 33.8547L32.8572 33.9261L34.5704 35.0683C33.9756 34.9017 32.8334 34.6161 32.8334 34.6161C29.0738 38.9469 22.9584 39.6607 19.6747 37.4716C19.5319 37.3764 18.7229 37.7095 18.5801 38.1854C18.485 38.4472 18.5801 38.7327 18.6991 38.9469C19.3654 40.1842 20.3648 40.0652 19.8889 41.5167C19.5557 42.302 19.0798 43.0634 18.5563 43.7773C17.4618 45.2526 15.7485 46.5613 15.9151 47.3465C23.6723 56.9121 41.1617 55.5796 47.8243 47.0372C47.7291 45.7998 45.7779 45.205 44.4216 42.183C44.8023 42.302 45.3734 42.4685 45.3734 42.4447C45.3734 42.4209 43.7554 39.8035 43.684 39.5417L44.7309 39.6131C44.7309 39.6131 43.3508 37.8999 43.3032 37.7333L44.7072 37.5429C44.7072 37.5429 42.9463 35.5204 42.9225 35.3538L44.7072 35.6393L42.756 33.2836H43.684L42.5894 31.6894L33.7138 28.1915C30.3111 26.0737 27.2891 23.48 25.0048 21.4813L20.4124 19.2445C16.0103 18.9114 11.8937 19.0304 9.37144 19.5301L10.9895 16.7698L8.6338 19.5777C8.49103 19.5301 8.32446 19.4825 8.32446 19.4825L8.49102 15.9132L7.70579 19.2445L6.63501 23.0041Z" fill="#D2943B"/>
<path fill-rule="evenodd" clip-rule="evenodd" d="M7.70574 19.2446C6.53978 18.6974 5.18346 19.4826 4.94551 20.5534C4.65997 21.5766 5.37382 22.8377 6.63496 23.0043C7.82471 22.2666 8.8479 20.363 7.70574 19.2446Z" fill="#FFCD86"/>
<path fill-rule="evenodd" clip-rule="evenodd" d="M25.0284 16.6509C24.6715 15.6753 24.7667 14.4142 25.2664 13.2244C25.9802 11.5826 27.3366 10.488 28.6215 10.488C28.8833 10.488 29.1212 10.5356 29.3592 10.6308C30.0968 9.96451 30.9534 9.41722 31.9052 9.0365C37.1401 6.94253 44.826 10.6784 46.801 15.8181C47.7528 18.3166 47.4672 21.0292 46.6582 23.5277C45.9919 25.5741 43.5648 28.5247 44.469 30.7376C44.1121 30.6424 36.6642 28.1202 34.5227 26.978C31.1676 24.884 28.1694 22.3142 25.9089 20.3392L25.8375 20.2678L18.2231 16.6509C18.1279 16.6033 18.0327 16.5557 17.9613 16.5082C19.0083 16.5557 23.1724 17.0554 25.0284 16.6509Z" fill="#FFD524"/>
<path d="M29.7894 15.1627C30.5056 13.5252 30.2955 11.852 29.3203 11.4254C28.345 10.9989 26.9738 11.9806 26.2577 13.6181C25.5415 15.2556 25.7515 16.9288 26.7268 17.3553C27.7021 17.7819 29.0733 16.8002 29.7894 15.1627Z" fill="white"/>
<path d="M29.5259 10.9879C28.2648 10.4406 26.5753 11.5114 25.7425 13.3912C24.9097 15.271 25.2904 17.2222 26.5515 17.7933C27.8127 18.3406 29.5021 17.2698 30.3349 15.39C31.1678 13.5101 30.787 11.5589 29.5259 10.9879ZM29.6449 15.1044C28.9786 16.6035 27.7175 17.5077 26.8371 17.127C25.9329 16.7225 25.7425 15.1996 26.4088 13.6767C27.075 12.1776 28.3362 11.2734 29.2404 11.6541C30.1208 12.0586 30.3111 13.6053 29.6449 15.1044Z" fill="#192E45"/>
<path d="M71.6193 18.031C71.6193 17.8168 71.762 17.6741 71.9762 17.6741H76.2117C76.4973 17.6741 76.6876 17.7693 76.7828 18.031L82.9219 31.9035H83.0647L89.0849 18.031C89.18 17.793 89.3704 17.6741 89.6559 17.6741H93.8201C94.0342 17.6741 94.177 17.8168 94.177 18.031V41.6357C94.177 41.8499 94.0342 41.9927 93.8201 41.9927H89.7749C89.5608 41.9927 89.418 41.8499 89.418 41.6357V27.9536H89.2752L84.7779 38.2092C84.6352 38.5424 84.421 38.6851 84.1117 38.6851H81.6608C81.3515 38.6851 81.1373 38.5424 80.9945 38.2092L76.4973 27.9536H76.3545V41.6357C76.3545 41.8499 76.2117 41.9927 75.9976 41.9927H71.9762C71.762 41.9927 71.6193 41.8499 71.6193 41.6357V18.031Z" fill="#192E45"/>
<path d="M99.4833 33.0457V18.031C99.4833 17.8168 99.626 17.6741 99.8402 17.6741H104.361C104.575 17.6741 104.718 17.8168 104.718 18.031V33.1885C104.718 36.0677 106.336 37.7095 108.787 37.7095C111.214 37.7095 112.809 36.0677 112.809 33.1885V18.031C112.809 17.8168 112.951 17.6741 113.165 17.6741H117.687C117.901 17.6741 118.043 17.8168 118.043 18.031V33.0457C118.043 39.0659 114.189 42.3734 108.763 42.3734C103.338 42.3734 99.4833 39.0897 99.4833 33.0457Z" fill="#192E45"/>
<path d="M123.326 18.031C123.326 17.8168 123.469 17.6741 123.683 17.6741H128.204C128.418 17.6741 128.561 17.8168 128.561 18.031V37.0909C128.561 37.2336 128.632 37.305 128.775 37.305H139.483C139.697 37.305 139.84 37.4478 139.84 37.6619V41.6119C139.84 41.8261 139.697 41.9689 139.483 41.9689H123.683C123.469 41.9689 123.326 41.8261 123.326 41.6119V18.031Z" fill="#192E45"/>
<path d="M143.695 18.031C143.695 17.8168 143.837 17.6741 144.052 17.6741H148.573C148.787 17.6741 148.93 17.8168 148.93 18.031V37.0909C148.93 37.2336 149.001 37.305 149.144 37.305H159.852C160.066 37.305 160.208 37.4478 160.208 37.6619V41.6119C160.208 41.8261 160.066 41.9689 159.852 41.9689H144.052C143.837 41.9689 143.695 41.8261 143.695 41.6119V18.031Z" fill="#192E45"/>
<path d="M167.728 41.9452C167.49 41.9452 167.347 41.8024 167.276 41.5883L159.566 18.0311C159.495 17.7694 159.637 17.6504 159.875 17.6504H164.515C164.753 17.6504 164.92 17.7456 164.991 18.0073L169.845 33.95H169.941L174.652 18.0073C174.723 17.7694 174.866 17.6504 175.104 17.6504H179.697C179.911 17.6504 180.054 17.7932 179.982 18.0311L172.273 41.5883C172.201 41.8024 172.058 41.9452 171.844 41.9452H167.728Z" fill="#192E45"/>
<path d="M188.548 18.031C188.62 17.8168 188.762 17.6741 189.024 17.6741H193.521C193.759 17.6741 193.902 17.8168 193.974 18.031L202.183 41.6357C202.254 41.8499 202.183 41.9927 201.945 41.9927H197.305C197.067 41.9927 196.9 41.8737 196.829 41.6357L195.449 37.4002H186.954L185.598 41.6357C185.526 41.8737 185.384 41.9927 185.122 41.9927H180.458C180.22 41.9927 180.149 41.8499 180.22 41.6357L188.548 18.031ZM194.021 32.8791L191.285 24.3367H191.19L188.453 32.8553L194.021 32.8791Z" fill="#192E45"/>
<path d="M205.728 18.031C205.728 17.8168 205.871 17.6741 206.085 17.6741H215.104C219.339 17.6741 222.314 19.4825 223.48 23.1232C223.908 24.4795 224.122 25.8358 224.122 29.8096C224.122 33.7833 223.908 35.1159 223.48 36.496C222.314 40.1366 219.339 41.9451 215.104 41.9451H206.085C205.871 41.9451 205.728 41.8023 205.728 41.5881V18.031ZM211.177 37.305H213.914C216.341 37.305 217.793 36.5912 218.411 34.64C218.649 33.9261 218.816 32.9981 218.816 29.8572C218.816 26.7162 218.673 25.7882 218.411 25.0743C217.816 23.1231 216.341 22.4093 213.914 22.4093H211.177C211.035 22.4093 210.963 22.4807 210.963 22.6235V37.1385C210.963 37.186 211.035 37.305 211.177 37.305Z" fill="#192E45"/>
<path d="M243.301 41.9452C243.039 41.9452 242.896 41.8024 242.825 41.5883L235.115 18.0311C235.044 17.7694 235.187 17.6504 235.425 17.6504H240.065C240.303 17.6504 240.469 17.7456 240.541 18.0073L245.395 33.95H245.49L250.201 18.0073C250.273 17.7694 250.416 17.6504 250.654 17.6504H255.246C255.46 17.6504 255.603 17.7932 255.532 18.0311L247.822 41.5883C247.751 41.8024 247.608 41.9452 247.394 41.9452H243.301Z" fill="#192E45"/>
<path d="M259.363 41.945C259.148 41.945 259.006 41.8023 259.006 41.5881V17.9834C259.006 17.7692 259.148 17.6265 259.363 17.6265H268.785C274.068 17.6265 277.233 20.7912 277.233 25.455C277.233 30.0237 274.02 33.2598 268.785 33.2598H264.478C264.336 33.2598 264.264 33.3312 264.264 33.474V41.5881C264.264 41.8023 264.122 41.945 263.907 41.945H259.363ZM271.998 25.5026C271.998 23.5514 270.689 22.2189 268.476 22.2189H264.478C264.336 22.2189 264.264 22.2903 264.264 22.4331V28.5246C264.264 28.6674 264.336 28.7388 264.478 28.7388H268.476C270.665 28.7626 271.998 27.4776 271.998 25.5026Z" fill="#192E45"/>
<path d="M281.325 18.031C281.325 17.8168 281.468 17.6741 281.682 17.6741H285.965C286.203 17.6741 286.441 17.7693 286.56 18.031L295.127 33.3312H295.317V18.031C295.317 17.8168 295.46 17.6741 295.674 17.6741H299.695C299.909 17.6741 300.052 17.8168 300.052 18.031V41.6357C300.052 41.8499 299.909 41.9927 299.695 41.9927H295.46C295.174 41.9927 294.984 41.8737 294.865 41.6357L286.275 26.3831H286.084V41.6357C286.084 41.8499 285.942 41.9927 285.728 41.9927H281.706C281.492 41.9927 281.349 41.8499 281.349 41.6357L281.325 18.031Z" fill="#192E45"/>
</g>
<defs>
<clipPath id="clip0_2548_39602">
<rect width="301" height="59.9779" fill="white" transform="translate(0 0.0111084)"/>
</clipPath>
</defs>
</svg>
